X:1245
T:Baurenmädl
N:Musiksammlung der Österreichischen Nationalbibliothek, Wien, Sign. S. M. 9659.
N:Gitarre
I:160
R:Menuett
M:3/4
L:1/8
%%staves (1 2)
K:D
V:1
[d2a2] f2 g2 | [d2a2] f2 g2 | f2 gfed | c2 bc A2 | 
dcdA [d2a2] | fefd [c2e2] | dcdA [d2a2] | fefd [c2e2] |
fg {a}~g2>f2 | [c6e6] :: [c2e2] c2 d2 | [c2e2] fg a2 | 
c2 dcBA | ^G6 | z2 A,cBd | c2 ed e2 | 
a2 edcB | A4 A2 | [d2a2] f2 g2 | [d2a2] f2 g2 |
f2 gfed | c2 Bc A2 | dcdA [d2a2] | fefd [c2e2] | 
dcdA [d2a2] | fefd [c2e2] | fgaefc | D6 :|
V:2
F2 D2 E2 | F2 D2 E2 | D6 | A,6 | 
D4 F2 | D4 A,2 | D4 F2 | D4 A,2 |
z2 D4 | A,6 :: A,4 D2 | A,6 |
A,6 | z2 E2 D2 | E2 A,4 | A,6 |
A,6 | z2 A,4 | F2 D2 E2 | F2 D2 E2 |
D6 | A,6 | D4 F2 | D4 A,2 | 
D4 F2 | D4 A,2 | z2 z2 z2 | D6 :|   


